X: 4
T: Missa Ave regina celorum / Sanctus
N: Derived from Duf1002d-Missa_Ave_regina_celorum-Sanctus.krn
C: Guillaume Du Fay
%%abc-version 2.0
%%abcx-abcm2ps-target-version 5.9.1 (29 Sep 2008)
%%abc-creator hum2abc beta
%%abcx-conversion-date 2019/02/16 20:31:46
%%abc-edited-by Alejandro Planchart, Jesse Rodin
%%abc-edited-by Alejandro Planchart
%%abcx-initial-encoding-date 2014/07/19/
%%humdrum-veritas 2244278570
%%humdrum-veritas-data 1171555274
%%linebreak <none>
%%barnumbers 0
L: 1/4
M: 3/1
Q: 1/2=120
%%staves [1 2 3 4]
V: 1 clef=treble
V: 2 clef=treble-8
V: 3 clef=treble-8
V: 4 clef=bass
K: C
[V:1] c6B2A4 | 
[V:2] f8c4 | 
[V:3] z12 | 
[V:4] F,8F,4 | 
[V:1] G4F2A3GE2 | 
[V:2] c4d3cA4- | 
[V:3] z12 | 
[V:4] _E,4D,6C,2 | 
[V:1] F4G6E2 | 
[V:2] A4G8 | 
[V:3] z12 | 
[V:4] D,4_E,6C,2 | 
[V:1] E4z2A2G2E2 | 
[V:2] z2g4f2e4 | 
[V:3] c8c4 | 
[V:4] C,12 | 
[V:1] F2D2F2G2A4- | 
[V:2] d2f4e2d4 | 
[V:3] _B4A6G2 | 
[V:4] D,8D,2=E,2 | 
[V:1] A4D4G4- | 
[V:2] c4g3fd4 | 
[V:3] A4_B6G2- | 
[V:4] F,4G,8 | 
[V:1] G2c2B2A2BAGF | 
[V:2] e4c4[d4f4] | 
[V:3] G2A2G2c4=B2 | 
[V:4] C,4E,2F,2D,4 | 
[V:1] E8z4 | 
[V:2] [G4g4]z4g4 | 
[V:3] c12 | 
[V:4] C,12- | 
[V:1] G4A2G2c4 | 
[V:2] e4f2e4g2- | 
[V:3] z4c8 | 
[V:4] C,12 | 
[V:1] B6c2d4 | 
[V:2] g2f2g8 | 
[V:3] d12 | 
[V:4] G,6A,2B,4 | 
[V:1] c2B2G4c2d2 | 
[V:2] g4e4c4 | 
[V:3] e12 | 
[V:4] C8A,4- | 
[V:1] e6d2c4 | 
[V:2] z4a4g4- | 
[V:3] e12 | 
[V:4] A,2G,2A,2B,2C4 | 
[V:1] B12 | 
[V:2] g12 | 
[V:3] d4e6d2 | 
[V:4] G,8G,4 | 
[V:1] A8B4 | 
[V:2] c8d4 | 
[V:3] f12 | 
[V:4] F,6E,2D,4 | 
[V:1] c6B2c4 | 
[V:2] e4c4g4- | 
[V:3] e12 | 
[V:4] C,12 | 
[V:1] d2B4c2B3A | 
[V:2] g12 | 
[V:3] d12 | 
[V:4] G,12 | 
[V:1] c2z2G2c2d2e2- | 
[V:2] e4e2f2g4 | 
[V:3] c12- | 
[V:4] C,12 | 
[V:1] e2d2c2BAG4 | 
[V:2] c2g2a2g2e4- | 
[V:3] c12 | 
[V:4] z12 | 
[V:1] z12 | 
[V:2] e2c2d2e2fe3/d/c | 
[V:3] z12 | 
[V:4] C,4B,,2C,4E,2 | 
[V:1] z12 | 
[V:2] B3Ac2z2G2c2- | 
[V:3] z12 | 
[V:4] D,4C,8 | 
[V:1] z12 | 
[V:2] cdcde3fefg2- | 
[V:3] z12 | 
[V:4] F,4G,2A,4B,2 | 
[V:1] c8B2G2 | 
[V:2] g2a3ff3eed | 
[V:3] z12 | 
[V:4] C4F,2A,2G,4 | 
[V:1] A2B2c4F4 | 
[V:2] f2g2a8 | 
[V:3] c12 | 
[V:4] F,8A,4 | 
[V:1] G4A8 | 
[V:2] d2e2f3ec2f2 | 
[V:3] _B4A8 | 
[V:4] G,4F,8 | 
[V:1] G4E4z2c2- | 
[V:2] ed2cc4g2e2- | 
[V:3] _B4G8 | 
[V:4] G,4C,8 | 
[V:1] cBc2A2G2F4 | 
[V:2] e2c3Bc2d4 | 
[V:3] A6c2=B2A2 | 
[V:4] z2F,4E,2D,4 | 
[V:1] E8E2F2 | 
[V:2] G4z4G2A2 | 
[V:3] c8c4 | 
[V:4] C,12 | 
[V:1] G4A4G4- | 
[V:2] _B4A2c4G2- | 
[V:3] d4e6d2 | 
[V:4] z12 | 
[V:1] G2_B3AA2G3F | 
[V:2] G2d4c2_B4 | 
[V:3] e2f3ee4d2 | 
[V:4] z12 | 
[V:1] A4z4e4- | 
[V:2] A8z4 | 
[V:3] e12 | 
[V:4] C12 | 
[V:1] e2d2e2c3BA2 | 
[V:2] c8A4 | 
[V:3] z4e8 | 
[V:4] A,8C4 | 
[V:1] G3FA4z2c2 | 
[V:2] d4c8 | 
[V:3] d4e4f4 | 
[V:4] B,4A,8 | 
[V:1] B2G4A3GF2 | 
[V:2] d2B2c2A4B2 | 
[V:3] g2e4c2d4 | 
[V:4] G,4E,2F,2D,4 | 
[V:1] E2G4A2B4 | 
[V:2] c4z4g4 | 
[V:3] G3A=B2c2d4 | 
[V:4] C,4G,8 | 
[V:1] c6d2c2d2 | 
[V:2] e4a6g2 | 
[V:3] c4f8 | 
[V:4] A,4F,4A,2B,2 | 
[V:1] e2c4B4A2 | 
[V:2] g12- | 
[V:3] e4d8 | 
[V:4] C4G,8 | 
[V:1] c12 ||  
[V:2] g12 ||  
[V:3] c12 ||  
[V:4] C,12 ||  
[V:1]  [K:C] [K:clef=treble][M:3/1]z4z4G4 | 
[V:2]  [K:C] [K:clef=treble-8][M:3/1]G4A2G4c2- | 
[V:3]  [K:C] [K:clef=treble-8][M:3/1]z12 | 
[V:4]  [K:C] [K:clef=bass][M:3/1]z12 | 
[V:1] A2G4c4B2 | 
[V:2] c2B2c2e2d4 | 
[V:3] z12 | 
[V:4] z12 | 
[V:1] c2e2d4c4 | 
[V:2] c4z2B2c2A2 | 
[V:3] z12 | 
[V:4] z12 | 
[V:1] z2B2c2A2G4 | 
[V:2] G4A2F2G2_B2 | 
[V:3] z12 | 
[V:4] z12 | 
[V:1] A2F2G2_B2A4 | 
[V:2] A4z2G2A2=B2 | 
[V:3] z12 | 
[V:4] z12 | 
[V:1] z2G2A2=B2c4 | 
[V:2] c4z2d2e2c2 | 
[V:3] z12 | 
[V:4] z12 | 
[V:1] z2d4e3dcB | 
[V:2] e2f2g4a4 | 
[V:3] z12 | 
[V:4] z12 | 
[V:1] A2d3cB2A3G | 
[V:2] f4d2g4^f2 | 
[V:3] z12 | 
[V:4] z12 | 
[V:1] G8z4 | 
[V:2] g4G8 | 
[V:3] z12 | 
[V:4] z12 | 
[V:1] C4D2E4F2 | 
[V:2] z12 | 
[V:3] z12 | 
[V:4] z12 | 
[V:1] G3EF2G2A4 | 
[V:2] c4d2e4f2 | 
[V:3] z12 | 
[V:4] z12 | 
[V:1] G2z2D3EF3E | 
[V:2] g3ef2g2a4 | 
[V:3] z12 | 
[V:4] z12 | 
[V:1] C2E2F2G2A3G | 
[V:2] g2z2d3ef3e | 
[V:3] z12 | 
[V:4] z12 | 
[V:1] c2d2e2c4B2 | 
[V:2] c2B2c2e2d4 | 
[V:3] z12 | 
[V:4] z12 | 
[V:1] c12 | 
[V:2] c12 | 
[V:3] z12 | 
[V:4] C,8F,2G,2 | 
[V:1] z12 | 
[V:2] z12 | 
[V:3] c4d2e4d2 | 
[V:4] A,4G,4C2B,2 | 
[V:1] z12 | 
[V:2] z12 | 
[V:3] e2f3ee2d3c | 
[V:4] G,2A,4G,2F,4 | 
[V:1] z12 | 
[V:2] z12 | 
[V:3] e4z2g4f2 | 
[V:4] E,8C,4- | 
[V:1] z12 | 
[V:2] z12 | 
[V:3] e3cd4e2c2- | 
[V:4] C,4B,,4C,4 | 
[V:1] z12 | 
[V:2] z12 | 
[V:3] c2d3cc4=B2 | 
[V:4] A,,2B,,2C,2E,2D,4 | 
[V:1] E3FG2A2G2c2- | 
[V:2] z12 | 
[V:3] c4z4c4 | 
[V:4] C,8C,4 | 
[V:1] cAc2B2G4^F2 | 
[V:2] z12 | 
[V:3] A4G2_B2A4 | 
[V:4] F,4G,4D,4 | 
[V:1] G4z4B4 | 
[V:2] d4e2d4g2 | 
[V:3] G8G4 | 
[V:4] z12 | 
[V:1] A2c2d2e3cd2 | 
[V:2] f3eg8 | 
[V:3] A4G2c4=B2 | 
[V:4] z12 | 
[V:1] e2c4A2BAGF | 
[V:2] z12 | 
[V:3] c3de2f2d4 | 
[V:4] z12 | 
[V:1] E3FG4C4 | 
[V:2] g4e2c2e2f2 | 
[V:3] c8z4 | 
[V:4] z12 | 
[V:1] z2c3de2d2B2- | 
[V:2] g12- | 
[V:3] c8d4 | 
[V:4] C,8G,3F, | 
[V:1] B2c2d2c2A2BA- | 
[V:2] g4a4d4 | 
[V:3] e4f8 | 
[V:4] E,4D,8 | 
[V:1] AGc2B2d4e2 | 
[V:2] e2g3fg2d2g2 | 
[V:3] e4d4g3e | 
[V:4] C,4G,8 | 
[V:1] dcBAG2c4B2 | 
[V:2] z4g8 | 
[V:3] f2g2c2e2d4 | 
[V:4] A,2G,2C4G,4 | 
[V:1] c4A4B4 | 
[V:2] e2a3gefg2d2 | 
[V:3] c2f3ec2d4 | 
[V:4] A,2F,4A,2G,4 | 
[V:1] c12 ||  
[V:2] e2f2g8 ||  
[V:3] c12 ||  
[V:4] C,12 ||  
[V:1]  [K:C] [K:clef=treble][M:3/1]c8c4 | 
[V:2]  [K:C] [K:clef=treble-8][M:3/1]g8e4 | 
[V:3]  [K:C] [K:clef=treble-8][M:3/1]c4e2f2g4 | 
[V:4]  [K:C] [K:clef=bass][M:3/1]C8C4 | 
[V:1] A4B2c2A2GF | 
[V:2] c4g2e2f4 | 
[V:3] f3ed2c2d4 | 
[V:4] F,4G,2A,2F,4 | 
[V:1] E2G2F3E/D/C4 | 
[V:2] g4a4f2e2 | 
[V:3] c4c4A4 | 
[V:4] C,4F,8 | 
[V:1] z12 | 
[V:2] d4B2c4d2 | 
[V:3] _B3cd2G2A4 | 
[V:4] G,6E,2F,4 | 
[V:1] G8E2F2 | 
[V:2] B3Ac4z2c2 | 
[V:3] G12 | 
[V:4] G,4C,8 | 
[V:1] G4A2G2B2c2 | 
[V:2] G2c4B2e4 | 
[V:3] z12 | 
[V:4] E,4F,2G,4A,2 | 
[V:1] d3c/B/A4G4 | 
[V:2] d4c2e2d2e2- | 
[V:3] G4A4=B2c2- | 
[V:4] B,4C4z4 | 
[V:1] E2G3FE2D3C | 
[V:2] e4c4z4 | 
[V:3] c2c2G2c2d2f2 | 
[V:4] C,8B,,4 | 
[V:1] C8B,4 | 
[V:2] z12 | 
[V:3] e2g3fe2d4 | 
[V:4] C,4E,3F,G,4 | 
[V:1] C4z4z4 | 
[V:2] g4e2f2g4 | 
[V:3] c12 | 
[V:4] C,12 | 
[V:1] z4G3AB2c2 | 
[V:2] G3AB2c2d2cA | 
[V:3] z12 | 
[V:4] z12 | 
[V:1] d2cABA/B/c2G2A2- | 
[V:2] BA/B/c2G2A2B2c2 | 
[V:3] z12 | 
[V:4] z12 | 
[V:1] ABc3dB2e3d | 
[V:2] g2e2f2g4c2 | 
[V:3] z12 | 
[V:4] z12 | 
[V:1] Bcd3cB2A4 | 
[V:2] e2f2d2g4^f2 | 
[V:3] z12 | 
[V:4] z12 | 
[V:1] G3FEDG4^F2 | 
[V:2] g2G4_B2A4 | 
[V:3] z12 | 
[V:4] z12 | 
[V:1] G4z4z4 | 
[V:2] G12 | 
[V:3] z12 | 
[V:4] z12 | 
[V:1] c4d4e4 | 
[V:2] z12 | 
[V:3] z4z4c4 | 
[V:4] C,4G,3F,E,4 | 
[V:1] f4e3cd4 | 
[V:2] z12 | 
[V:3] d4e4f4 | 
[V:4] D,4C,4z2B,,2 | 
[V:1] e2c2d2c4B2 | 
[V:2] z12 | 
[V:3] e3cf2e2d4 | 
[V:4] C,2A,,2B,,2C,2G,4 | 
[V:1] c8G4- | 
[V:2] g6e6 | 
[V:3] c12 | 
[V:4] C,12 | 
[V:1] G2E2F3EG4 | 
[V:2] c4d4e4 | 
[V:3] z12 | 
[V:4] z4z4C,4 | 
[V:1] z12 | 
[V:2] f4e3cd4 | 
[V:3] z12 | 
[V:4] D,4E,4F,4 | 
[V:1] z12 | 
[V:2] e2c2d2c4B2 | 
[V:3] z12 | 
[V:4] E,3C,F,2E,2D,4 | 
[V:1] z12 | 
[V:2] c4z4e2f2 | 
[V:3] z12 | 
[V:4] C,12- | 
[V:1] E4F2G4A2 | 
[V:2] g2a4g2e2f2 | 
[V:3] z4c8 | 
[V:4] C,8C4 | 
[V:1] G2c2d2B3cBA | 
[V:2] g4g8 | 
[V:3] e4d8 | 
[V:4] C4G,8 | 
[V:1] c12 ||  
[V:2] g12 ||  
[V:3] c12 ||  
[V:4] C,12 ||  
[V:1]  [K:C] [K:clef=treble][M:4/2]G8- | 
[V:2]  [K:C] [K:clef=treble-8][M:4/2]g8- | 
[V:3]  [K:C] [K:clef=treble-8][M:4/2]z8 | 
[V:4]  [K:C] [K:clef=bass][M:4/2]z8 | 
[V:1] G8 | 
[V:2] g8- | 
[V:3] z8 | 
[V:4] z8 | 
[V:1] B4c4 | 
[V:2] g8- | 
[V:3] z8 | 
[V:4] z8 | 
[V:1] d8 | 
[V:2] g8 | 
[V:3] z8 | 
[V:4] z8 | 
[V:1] e8 | 
[V:2] c8 | 
[V:3] z8 | 
[V:4] z8 | 
[V:1] c4d4- | 
[V:2] e4f4 | 
[V:3] z8 | 
[V:4] z8 | 
[V:1] d2c2B4 | 
[V:2] g8 | 
[V:3] z8 | 
[V:4] z8 | 
[V:1] A8 | 
[V:2] a4f4 | 
[V:3] z8 | 
[V:4] z8 | 
[V:1] G4B4 | 
[V:2] e2g4f2 | 
[V:3] z8 | 
[V:4] z8 | 
[V:1] A4d4- | 
[V:2] d4f4 | 
[V:3] z8 | 
[V:4] z8 | 
[V:1] d4^c4 | 
[V:2] e8 | 
[V:3] z8 | 
[V:4] z8 | 
[V:1] d6c2 | 
[V:2] d8- | 
[V:3] z8 | 
[V:4] z8 | 
[V:1] B2A2A4- | 
[V:2] d8 | 
[V:3] z8 | 
[V:4] z8 | 
[V:1] A2G2A4 | 
[V:2] c8 | 
[V:3] z8 | 
[V:4] z8 | 
[V:1] B2A2G2F2 | 
[V:2] d4B4 | 
[V:3] z8 | 
[V:4] z8 | 
[V:1] E4D4- | 
[V:2] c4d4 | 
[V:3] z8 | 
[V:4] z8 | 
[V:1] D4G4- | 
[V:2] G4B4 | 
[V:3] z8 | 
[V:4] z8 | 
[V:1] G2^F2F2E2 | 
[V:2] A8 | 
[V:3] z8 | 
[V:4] z8 | 
[V:1] G8 | 
[V:2] G8- | 
[V:3] z8 | 
[V:4] z8 | 
[V:1] z8 | 
[V:2] G8 | 
[V:3] z8 | 
[V:4] z8 | 
[V:1] G4A4 | 
[V:2] z8 | 
[V:3] z8 | 
[V:4] z8 | 
[V:1] G2E4F2 | 
[V:2] g4a4 | 
[V:3] z8 | 
[V:4] z8 | 
[V:1] G4C2D2 | 
[V:2] g2e4f2 | 
[V:3] z8 | 
[V:4] z8 | 
[V:1] E2C4B,2 | 
[V:2] g4c2d2 | 
[V:3] z8 | 
[V:4] z8 | 
[V:1] C2E2D4 | 
[V:2] e2c4B2 | 
[V:3] z8 | 
[V:4] z8 | 
[V:1] C4z4 | 
[V:2] c2e2d4 | 
[V:3] z8 | 
[V:4] z8 | 
[V:1] c6B2 | 
[V:2] c4z4 | 
[V:3] z8 | 
[V:4] z8 | 
[V:1] A2G2G4 | 
[V:2] c6B2 | 
[V:3] z8 | 
[V:4] z8 | 
[V:1] F3EG4 | 
[V:2] A3GG4 | 
[V:3] z8 | 
[V:4] z8 | 
[V:1] A4B4 | 
[V:2] F3EG4 | 
[V:3] z8 | 
[V:4] z8 | 
[V:1] c4B2G2 | 
[V:2] A4B4 | 
[V:3] z8 | 
[V:4] z8 | 
[V:1] A4G2G2- | 
[V:2] c4B2G2 | 
[V:3] z8 | 
[V:4] z8 | 
[V:1] G2^F2G4 | 
[V:2] A4G2z2 | 
[V:3] z8 | 
[V:4] z8 | 
[V:1] z2G4A2 | 
[V:2] c4B2c2- | 
[V:3] z8 | 
[V:4] z8 | 
[V:1] G2c2d2B2- | 
[V:2] c2e2d4 | 
[V:3] z8 | 
[V:4] z8 | 
[V:1] B2e2f2d2 | 
[V:2] g4a2f2 | 
[V:3] z8 | 
[V:4] z8 | 
[V:1] e2c2d2B2 | 
[V:2] g2e2f2g2- | 
[V:3] z8 | 
[V:4] z8 | 
[V:1] G2c4B2 | 
[V:2] g2c2d4 | 
[V:3] z8 | 
[V:4] z8 | 
[V:1] c8 | 
[V:2] c8- | 
[V:3] z8 | 
[V:4] z8 | 
[V:1] z8 | 
[V:2] c8 | 
[V:3] z8 | 
[V:4] z8 | 
[V:1] [M:3/3]c4(3:2:2d2e4 | 
[V:2] [M:3/3](3z4z4c4 | 
[V:3] z8 | 
[V:4] z8 | 
[V:1] (3f4e4c4 | 
[V:2] (3d4c4f4- | 
[V:3] z8 | 
[V:4] z8 | 
[V:1] (3d4c4A4 | 
[V:2] (3f4e4c4 | 
[V:3] z8 | 
[V:4] z8 | 
[V:1] (3B4c4z4 | 
[V:2] (3d4c4A4 | 
[V:3] z8 | 
[V:4] z8 | 
[V:1] (3d4c4e4 | 
[V:2] (3B4c4z4 | 
[V:3] z8 | 
[V:4] z8 | 
[V:1] (3:2:1f4e4(3:2:1c2 | 
[V:2] (3d4c4e4 | 
[V:3] z8 | 
[V:4] z8 | 
[V:1] (3:2:2d4e8 | 
[V:2] (3f4e4c4 | 
[V:3] z8 | 
[V:4] z8 | 
[V:1] (3d4B4c4 | 
[V:2] (3:2:2d4e8 | 
[V:3] z8 | 
[V:4] z8 | 
[V:1] (3:2:2d8c4 | 
[V:2] (3d4B4c4 | 
[V:3] z8 | 
[V:4] z8 | 
[V:1] (3:2:1B4A4(3:2:1G2 | 
[V:2] (3:2:2d8c4 | 
[V:3] z8 | 
[V:4] z8 | 
[V:1] (3:2:2G8^F4 | 
[V:2] (3:2:2B4A8 | 
[V:3] z8 | 
[V:4] z8 | 
[V:1] (3:2:5G4A2G2F2E2 | 
[V:2] (3:2:2G4c8 | 
[V:3] z8 | 
[V:4] z8 | 
[V:1] (3D4z4E4 | 
[V:2] (3:2:2B4G8 | 
[V:3] z8 | 
[V:4] z8 | 
[V:1] (3:2:2F4G8 | 
[V:2] (3A4G4B4 | 
[V:3] z8 | 
[V:4] z8 | 
[V:1] (3:2:2A8B4- | 
[V:2] (3:2:2c4d8 | 
[V:3] z8 | 
[V:4] z8 | 
[V:1] (3:2:5B4c2B2A2G2 | 
[V:2] (3e4c4d4 | 
[V:3] z8 | 
[V:4] z8 | 
[V:1] (3:2:2G8E4- | 
[V:2] (3:2:1B4c4(3:2:1B2 | 
[V:3] z8 | 
[V:4] z8 | 
[V:1] (3:2:2E4^F8 | 
[V:2] (3:2:2G4A8 | 
[V:3] z8 | 
[V:4] z8 | 
[V:1] G8 ||  
[V:2] G8 ||  
[V:3] z8 ||  
[V:4] z8 ||  
[V:1]  [K:C] [K:clef=treble][M:4/2]c8 | 
[V:2]  [K:C] [K:clef=treble-8][M:4/2]g8- | 
[V:3]  [K:C] [K:clef=treble-8][M:4/2]c8 | 
[V:4]  [K:C] [K:clef=bass][M:4/2]C,8 | 
[V:1] B8 | 
[V:2] g8 | 
[V:3] d4e4- | 
[V:4] G,8 | 
[V:1] c8 | 
[V:2] c8 | 
[V:3] e4f2e2 | 
[V:4] A,8 | 
[V:1] d8 | 
[V:2] G8 | 
[V:3] d3cd4 | 
[V:4] B,8 | 
[V:1] G4c4 | 
[V:2] z4g4- | 
[V:3] e8 | 
[V:4] C8 | 
[V:1] B4d4 | 
[V:2] g2f2d4 | 
[V:3] g8- | 
[V:4] G,8 | 
[V:1] e4c4 | 
[V:2] c4e4 | 
[V:3] g8 | 
[V:4] C8 | 
[V:1] B2B4A2 | 
[V:2] f4d4 | 
[V:3] f8 | 
[V:4] D8 | 
[V:1] c8 | 
[V:2] e4c4 | 
[V:3] e8 | 
[V:4] C4A,4 | 
[V:1] d6c2 | 
[V:2] G8 | 
[V:3] d8 | 
[V:4] B,8 | 
[V:1] A2G2G4 | 
[V:2] z4c4 | 
[V:3] c4e4 | 
[V:4] C8 | 
[V:1] z4G4 | 
[V:2] B8 | 
[V:3] d8 | 
[V:4] G,8 | 
[V:1] E4F2G2- | 
[V:2] G4A2G2 | 
[V:3] c8 | 
[V:4] C,8 | 
[V:1] G2F2D4 | 
[V:2] B6G2 | 
[V:3] d8 | 
[V:4] B,,8 | 
[V:1] !fermata!C8 | 
[V:2] !fermata!G8 | 
[V:3] !fermata!e8 | 
[V:4] !fermata!C,8 | 
[V:1] z8 | 
[V:2] z8 | 
[V:3] z8 | 
[V:4] z8 | 
[V:1] c8 | 
[V:2] c8 | 
[V:3] e8 | 
[V:4] C,8 | 
[V:1] d4B4 | 
[V:2] B8 | 
[V:3] d4e4 | 
[V:4] G,8 | 
[V:1] A8 | 
[V:2] c8 | 
[V:3] f6e2 | 
[V:4] F,8- | 
[V:1] A8 | 
[V:2] z4f4 | 
[V:3] d2c2c4 | 
[V:4] F,8 | 
[V:1] G4F2A2- | 
[V:2] g4a4 | 
[V:3] z4d4- | 
[V:4] E,4D,4 | 
[V:1] A2B2c2B2 | 
[V:2] f8 | 
[V:3] d4c4- | 
[V:4] F,6G,2 | 
[V:1] A4G4 | 
[V:2] e8 | 
[V:3] c4=B4 | 
[V:4] A,4E,4 | 
[V:1] z4d4 | 
[V:2] a4g4- | 
[V:3] A4=B4 | 
[V:4] F,4G,4- | 
[V:1] B4c4 | 
[V:2] g4e4 | 
[V:3] G4c4- | 
[V:4] G,4C,4 | 
[V:1] (3:2:5A4B2A2G2F2 | 
[V:2] [d8f8] | 
[V:3] c4=B4 | 
[V:4] D,8 | 
[V:1] E4z4 | 
[V:2] [G8g8] | 
[V:3] c8- | 
[V:4] C,8- | 
[V:1] c8 | 
[V:2] e8 | 
[V:3] c8 | 
[V:4] C,8 | 
[V:1] d8 | 
[V:2] d8 | 
[V:3] z8 | 
[V:4] G,4F,4 | 
[V:1] e8 | 
[V:2] G4c4 | 
[V:3] c8 | 
[V:4] E,8 | 
[V:1] f8 | 
[V:2] A4B4 | 
[V:3] d8 | 
[V:4] D,8 | 
[V:1] e4c4 | 
[V:2] c8 | 
[V:3] e8 | 
[V:4] C,4E,4 | 
[V:1] d8 | 
[V:2] z8 | 
[V:3] f8 | 
[V:4] D,4B,,4 | 
[V:1] c4c4- | 
[V:2] z8 | 
[V:3] e4c4 | 
[V:4] C,8 | 
[V:1] c4B4 | 
[V:2] z8 | 
[V:3] d8 | 
[V:4] G,8 | 
[V:1] c8 | 
[V:2] z8 | 
[V:3] c8 | 
[V:4] C,8- | 
[V:1] G4E4 | 
[V:2] c8 | 
[V:3] z8 | 
[V:4] C,8 | 
[V:1] (3:2:4G2F4E2D4 | 
[V:2] d8 | 
[V:3] z8 | 
[V:4] B,,8 | 
[V:1] C8 | 
[V:2] e8 | 
[V:3] z8 | 
[V:4] C,8 | 
[V:1] z8 | 
[V:2] f8 | 
[V:3] z8 | 
[V:4] D,8 | 
[V:1] z8 | 
[V:2] e4c4 | 
[V:3] z8 | 
[V:4] E,8 | 
[V:1] z8 | 
[V:2] d8 | 
[V:3] z8 | 
[V:4] F,8 | 
[V:1] z8 | 
[V:2] c4c4- | 
[V:3] z8 | 
[V:4] E,4C,4 | 
[V:1] z8 | 
[V:2] c4B4 | 
[V:3] z8 | 
[V:4] D,8 | 
[V:1] E6F2 | 
[V:2] c8- | 
[V:3] z8 | 
[V:4] C,8- | 
[V:1] E2F2G4- | 
[V:2] c8 | 
[V:3] z8 | 
[V:4] C,8 | 
[V:1] G4A4 | 
[V:2] z8 | 
[V:3] e8 | 
[V:4] C8 | 
[V:1] G4c4 | 
[V:2] g8 | 
[V:3] e8 | 
[V:4] C8 | 
[V:1] d4B4- | 
[V:2] g8- | 
[V:3] d8- | 
[V:4] G,8- | 
[V:1] B2c2B2A2 | 
[V:2] g8 | 
[V:3] d8 | 
[V:4] G,8 | 
[V:1] c8 |]  
[V:2] g8 |]  
[V:3] c8 |]  
[V:4] C,8 |]  



% FRACTION = 0.9375BUT SHOULD BE 0
% FRACTION = 0.9375BUT SHOULD BE 0
% FRACTION = 0.9375BUT SHOULD BE 0
